src/assets/images/left-pane-bottom-right-shopping-bag.svg

<svg width="244" height="291" viewBox="0 0 244 291" fill="none" xmlns="http://www.w3.org/2000/svg">
<g opacity="0.1" clip-path="url(#clip0_4105_35529)">
<path d="M177.028 103.839C176.323 103.951 175.617 103.539 175.383 102.838C175.107 102.021 174.724 100.806 174.237 99.2661C171.202 89.6813 164.104 67.2354 154.033 48.152C141.754 24.8734 129.449 14.6207 117.451 17.6586C112.825 18.834 109.696 21.2396 107.882 25.0186C101.021 39.3077 115.007 70.094 124.262 90.4646C127.754 98.1487 130.769 104.788 132.118 109.193C132.36 109.981 131.916 110.815 131.129 111.057C130.339 111.297 129.508 110.855 129.265 110.064C127.973 105.848 124.994 99.2906 121.547 91.6995C111.494 69.5738 97.7281 39.2728 105.192 23.7272C107.379 19.1662 111.258 16.1512 116.717 14.7647C130.225 11.338 143.665 22.1019 156.674 46.7584C166.867 66.0782 174.023 88.7061 177.082 98.3665C177.563 99.8893 177.942 101.093 178.211 101.889C178.473 102.67 178.055 103.515 177.274 103.78C177.193 103.807 177.111 103.826 177.028 103.839Z" fill="#F6F8F9"/>
<path d="M215.178 192.986L124.777 204.72L98.1562 116.24L188.557 104.507L215.178 192.986Z" fill="white"/>
<path d="M215.415 194.46C215.401 194.463 215.389 194.464 215.375 194.467L124.972 206.204C124.249 206.294 123.562 205.85 123.352 205.152L96.7307 116.672C96.6058 116.254 96.6692 115.8 96.9074 115.43C97.146 115.063 97.5339 114.823 97.968 114.763L188.369 103.029C189.094 102.935 189.781 103.379 189.991 104.078L216.612 192.557C216.737 192.976 216.671 193.43 216.436 193.799C216.204 194.156 215.834 194.394 215.415 194.46ZM125.843 203.076L213.248 191.731L187.499 106.15L100.095 117.498L125.843 203.076Z" fill="#F6F8F9"/>
<path d="M194.78 91.3822L188.561 104.509L215.182 192.988L227.283 166.789L194.78 91.3822Z" fill="white"/>
<path d="M215.409 194.462C215.3 194.479 215.187 194.485 215.071 194.477C214.453 194.434 213.925 194.012 213.749 193.416L187.128 104.94C187.022 104.586 187.05 104.202 187.209 103.869L193.425 90.7427C193.676 90.2121 194.216 89.8768 194.8 89.8903C195.386 89.9005 195.912 90.2524 196.144 90.789L228.646 166.196C228.814 166.587 228.81 167.028 228.63 167.412L216.53 193.615C216.32 194.074 215.894 194.385 215.409 194.462ZM190.152 104.629L215.47 188.791L225.643 166.765L194.71 95.0017L190.152 104.629Z" fill="#F6F8F9"/>
<path d="M96.9684 109.995L104.804 97.766L195.966 97.6285L188.127 109.857L96.9684 109.995Z" fill="white"/>
<path d="M187.929 112.587C187.918 112.587 187.903 112.587 187.889 112.587L96.7661 110.016C96.2177 110.001 95.7246 109.687 95.4782 109.199C95.2289 108.714 95.2669 108.131 95.5746 107.681L103.773 95.6876C104.058 95.2696 104.534 95.026 105.047 95.0378L196.17 97.6088C196.715 97.6236 197.208 97.9374 197.458 98.4253C197.704 98.9102 197.666 99.4938 197.358 99.9437L189.163 111.937C188.884 112.343 188.423 112.587 187.929 112.587ZM99.5817 107.108L187.159 109.578L193.354 100.517L105.777 98.046L99.5817 107.108Z" fill="#F6F8F9"/>
<path d="M168.793 116.84C168.088 116.952 167.383 116.543 167.149 115.842C166.591 114.19 165.764 110.803 164.618 106.119C159.232 84.0756 146.612 32.4529 126.939 20.617C123.121 18.3195 119.341 17.6916 115.387 18.6931C110.984 19.8098 107.814 22.2924 105.695 26.2783C96.0962 44.3395 111.49 87.2372 119.761 110.283C121.5 115.128 123.001 119.312 123.883 122.194C124.125 122.982 123.682 123.816 122.894 124.058C122.104 124.298 121.273 123.856 121.031 123.068C120.169 120.253 118.678 116.101 116.951 111.291C108.526 87.809 92.8426 44.1045 103.062 24.8781C105.563 20.1704 109.463 17.1168 114.65 15.7996C119.353 14.6063 124.002 15.3671 128.476 18.0576C149.216 30.5331 162.041 83.0052 167.517 105.411C168.601 109.851 169.458 113.358 169.977 114.89C170.238 115.671 169.82 116.519 169.039 116.781C168.958 116.808 168.876 116.827 168.793 116.84Z" fill="#F6F8F9"/>
<path d="M147.746 117.886C147.655 117.9 147.559 117.907 147.461 117.902C146.637 117.873 145.991 117.185 146.019 116.36C146.039 115.837 146.064 115.162 146.1 114.346C148.574 53.6132 139.152 18.9627 119.569 16.7775C114.877 16.2526 110.993 17.4519 107.7 20.4446C94.2028 32.7056 94.7763 71.8449 95.12 95.2297C95.215 101.737 95.2959 107.357 95.0667 111.052C95.0147 111.875 94.3088 112.501 93.484 112.449C92.6625 112.4 92.0363 111.69 92.0884 110.868C92.3118 107.285 92.2305 101.718 92.1364 95.2724C91.7623 69.8377 91.2002 31.4021 105.697 18.2336C109.603 14.6822 114.382 13.1945 119.901 13.809C141.575 16.228 151.665 51.0373 149.08 114.468C149.049 115.275 149.02 115.944 149.002 116.462C148.979 117.188 148.437 117.777 147.746 117.886Z" fill="#F6F8F9"/>
<path d="M168.976 257.92L48.8577 243.894L48.4546 108.114L168.573 122.14L168.976 257.92Z" fill="#29333A"/>
<path d="M169.208 259.397C169.073 259.418 168.936 259.419 168.801 259.405L48.6826 245.377C47.9315 245.29 47.3643 244.657 47.3619 243.899L46.9617 108.118C46.9614 107.689 47.1412 107.284 47.4602 106.999C47.7798 106.716 48.2049 106.581 48.6267 106.629L168.745 120.657C169.496 120.744 170.064 121.378 170.066 122.136L170.466 257.916C170.466 258.345 170.284 258.75 169.968 259.036C169.751 259.228 169.486 259.353 169.208 259.397ZM50.3441 242.566L167.476 256.243L167.084 123.468L49.9522 109.791L50.3441 242.566Z" fill="#F6F8F9"/>
<path d="M168.579 122.14L180.24 111.237L191.112 234.309L168.982 257.92L168.579 122.14Z" fill="#29333A"/>
<path d="M169.212 259.397C168.954 259.438 168.685 259.41 168.431 259.309C167.861 259.084 167.487 258.538 167.487 257.927L167.086 122.143C167.083 121.729 167.255 121.332 167.56 121.048L179.218 110.145C179.635 109.756 180.236 109.637 180.771 109.841C181.303 110.045 181.674 110.536 181.723 111.104L192.594 234.176C192.632 234.6 192.487 235.019 192.198 235.33L170.066 258.944C169.834 259.19 169.533 259.346 169.212 259.397ZM170.07 122.785L170.457 254.159L189.564 233.774L179.018 114.415L170.07 122.785Z" fill="#F6F8F9"/>
<path d="M60.1218 97.2101L48.4607 108.117L168.579 122.142L180.24 111.238L60.1218 97.2101Z" fill="#29333A"/>
<path d="M168.806 123.615C168.674 123.636 168.537 123.64 168.402 123.623L48.284 109.598C47.7064 109.531 47.2203 109.131 47.0392 108.581C46.8577 108.027 47.0115 107.421 47.436 107.022L59.0946 96.1187C59.4147 95.8211 59.85 95.6759 60.287 95.7273L180.405 109.753C180.983 109.82 181.468 110.216 181.65 110.77C181.831 111.323 181.678 111.929 181.253 112.326L169.592 123.232C169.371 123.438 169.099 123.569 168.806 123.615ZM51.8275 107.003L168.061 120.576L176.862 112.347L60.6279 98.7745L51.8275 107.003Z" fill="#F6F8F9"/>
<mask id="mask0_4105_35529" style="mask-type:luminance" maskUnits="userSpaceOnUse" x="31" y="117" width="138" height="160">
<path d="M31.3906 135.42L145.838 117.32L168.13 258.275L53.6823 276.375L31.3906 135.42Z" fill="white"/>
</mask>
<g mask="url(#mask0_4105_35529)">
<mask id="mask1_4105_35529" style="mask-type:luminance" maskUnits="userSpaceOnUse" x="48" y="108" width="121" height="150">
<path d="M168.984 257.924L48.8655 243.898L48.4624 108.118L168.58 122.144L168.984 257.924Z" fill="white"/>
</mask>
<g mask="url(#mask1_4105_35529)">
<path d="M115.278 278.676C111.917 279.208 108.371 277.999 106.046 275.183C102.547 270.948 103.141 264.672 107.375 261.172C126.25 245.559 133.721 230.227 136.663 220.112C140.065 208.418 139.177 197.433 134.226 189.974C133.963 189.577 133.688 189.192 133.406 188.819C129.801 198.254 122.92 207.861 112.87 217.458C100.699 229.077 86.9758 233.058 75.2201 228.377C65.3981 224.463 58.9411 215.172 58.3699 204.131C57.6644 190.439 66.0696 177.648 80.8534 169.92C91.1058 164.556 100.926 161.478 110.181 160.71C95.7454 147.626 60.4281 145.134 34.5711 161.413C29.923 164.341 23.7796 162.94 20.8555 158.288C17.9285 153.636 19.324 147.49 23.9754 144.564C40.7947 133.974 61.366 128.924 81.8935 130.34C102.255 131.744 119.282 139.43 128.619 151.419C131.922 155.664 134.181 160.307 135.37 165.225C141.588 168.38 146.867 173.042 150.797 178.964C158.996 191.321 160.807 208.348 155.761 225.68C150.424 244.029 138.076 261.608 120.051 276.516C118.627 277.694 116.975 278.408 115.275 278.676L115.278 278.676ZM109.029 180.878C103.238 181.794 96.8475 184.016 90.0702 187.56C82.3679 191.588 77.9437 197.399 78.2385 203.108C78.4033 206.286 80.065 208.88 82.573 209.88C86.7328 211.535 92.9238 208.984 99.1358 203.054C104.885 197.562 112.435 189.114 115.272 180.399C113.283 180.376 111.199 180.535 109.029 180.878Z" fill="white"/>
</g>
</g>
<path d="M169.208 259.397C169.073 259.418 168.936 259.419 168.801 259.405L48.6826 245.377C47.9315 245.29 47.3643 244.657 47.3619 243.899L46.9617 108.118C46.9614 107.689 47.1412 107.284 47.4602 106.999C47.7798 106.716 48.2049 106.581 48.6267 106.629L168.745 120.657C169.496 120.744 170.064 121.378 170.066 122.136L170.466 257.916C170.466 258.345 170.284 258.75 169.968 259.036C169.751 259.228 169.486 259.353 169.208 259.397ZM50.3441 242.566L167.476 256.243L167.084 123.468L49.9522 109.791L50.3441 242.566Z" fill="#F6F8F9"/>
<path d="M135.466 127.159C135.372 127.174 135.276 127.181 135.178 127.176C134.354 127.147 133.71 126.458 133.739 125.634C133.787 124.23 134.004 121.741 134.305 118.292C136.383 94.4363 142.714 21.8359 114.855 18.7286C110.351 18.2239 106.441 19.4626 102.904 22.5087C85.9896 37.0855 84.0858 87.3631 83.172 111.526C83.0391 115.051 82.9245 118.097 82.7836 120.326C82.7349 121.151 82.0257 121.775 81.2038 121.723C80.3795 121.674 79.7561 120.964 79.8081 120.141C79.9425 117.945 80.057 114.917 80.1897 111.41C81.1194 86.827 83.0576 35.6709 100.957 20.2446C105.098 16.6766 109.886 15.167 115.185 15.7605C128.509 17.2453 136.421 31.9699 138.705 59.5218C140.516 81.3959 138.408 105.568 137.278 118.554C136.991 121.827 136.768 124.411 136.722 125.735C136.696 126.462 136.157 127.05 135.466 127.159Z" fill="#F6F8F9"/>
</g>
<defs>
<clipPath id="clip0_4105_35529">
<rect width="205" height="262" fill="white" transform="translate(0 32.0215) rotate(-8.98679)"/>
</clipPath>
</defs>
</svg>

<svg width="244" height="291" fill="none" xmlns="http://www.w3.org/2000/svg"><g opacity=".1" clip-path="url(#a)"><path d="M177.028 103.839a1.492 1.492 0 0 1-1.645-1.001c-.276-.817-.659-2.032-1.146-3.572-3.035-9.585-10.133-32.03-20.204-51.114-12.279-23.279-24.584-33.531-36.582-30.493-4.626 1.175-7.755 3.58-9.569 7.36-6.861 14.289 7.125 45.075 16.38 65.446 3.492 7.684 6.507 14.323 7.856 18.728a1.493 1.493 0 1 1-2.853.871c-1.292-4.216-4.271-10.773-7.718-18.364-10.053-22.126-23.819-52.427-16.355-67.973 2.187-4.56 6.066-7.576 11.525-8.962 13.508-3.427 26.948 7.337 39.957 31.993 10.193 19.32 17.349 41.948 20.408 51.608.481 1.523.86 2.727 1.129 3.523a1.494 1.494 0 0 1-1.183 1.95z" fill="#F6F8F9"/><path d="m215.178 192.986-90.401 11.734-26.62-88.48 90.4-11.733 26.621 88.479z" fill="#fff"/><path d="m215.415 194.46-.04.007-90.403 11.737a1.499 1.499 0 0 1-1.62-1.052l-26.621-88.48a1.501 1.501 0 0 1 .176-1.242 1.506 1.506 0 0 1 1.061-.667l90.401-11.734a1.493 1.493 0 0 1 1.622 1.049l26.621 88.479c.125.419.059.873-.176 1.242a1.49 1.49 0 0 1-1.021.661zm-89.572 8.616 87.405-11.345-25.749-85.581-87.404 11.348 25.748 85.578z" fill="#F6F8F9"/><path d="m194.78 91.382-6.219 13.127 26.621 88.479 12.101-26.199-32.503-75.407z" fill="#fff"/><path d="M215.409 194.462a1.486 1.486 0 0 1-1.66-1.046l-26.621-88.476a1.496 1.496 0 0 1 .081-1.071l6.216-13.126a1.493 1.493 0 0 1 2.719.046l32.502 75.407c.168.391.164.832-.016 1.216l-12.1 26.203c-.21.459-.636.77-1.121.847zm-25.257-89.833 25.318 84.162 10.173-22.026-30.933-71.763-4.558 9.627z" fill="#F6F8F9"/><path d="m96.968 109.995 7.836-12.229 91.162-.138-7.839 12.229-91.159.138z" fill="#fff"/><path d="M187.929 112.587h-.04l-91.123-2.571a1.487 1.487 0 0 1-1.288-.817 1.486 1.486 0 0 1 .097-1.518l8.198-11.993a1.493 1.493 0 0 1 1.274-.65l91.123 2.57a1.495 1.495 0 0 1 1.288.817 1.495 1.495 0 0 1-.1 1.519l-8.195 11.993c-.279.406-.74.65-1.234.65zm-88.347-5.479 87.577 2.47 6.195-9.061-87.577-2.471-6.195 9.062z" fill="#F6F8F9"/><path d="M168.793 116.84a1.489 1.489 0 0 1-1.644-.998c-.558-1.652-1.385-5.039-2.531-9.723-5.386-22.043-18.006-73.666-37.679-85.502-3.818-2.297-7.598-2.925-11.552-1.924-4.403 1.117-7.573 3.6-9.692 7.585-9.599 18.062 5.795 60.96 14.066 84.005 1.739 4.845 3.24 9.029 4.122 11.911a1.492 1.492 0 1 1-2.852.874c-.862-2.815-2.353-6.967-4.08-11.777-8.425-23.482-24.108-67.186-13.889-86.413 2.501-4.708 6.401-7.761 11.588-9.078 4.703-1.194 9.352-.433 13.826 2.258 20.74 12.475 33.565 64.947 39.041 87.353 1.084 4.44 1.941 7.947 2.46 9.479a1.494 1.494 0 0 1-1.184 1.95z" fill="#F6F8F9"/><path d="M147.746 117.886a1.493 1.493 0 0 1-1.727-1.526c.02-.523.045-1.198.081-2.014 2.474-60.733-6.948-95.383-26.531-97.569-4.692-.524-8.576.675-11.869 3.668-13.497 12.26-12.924 51.4-12.58 74.785.095 6.507.176 12.127-.053 15.822a1.491 1.491 0 1 1-2.979-.184c.224-3.583.143-9.15.048-15.596-.374-25.434-.936-63.87 13.561-77.038 3.906-3.552 8.685-5.04 14.204-4.425 21.674 2.419 31.764 37.228 29.179 100.659-.031.807-.06 1.476-.078 1.994a1.492 1.492 0 0 1-1.256 1.424z" fill="#F6F8F9"/><path d="M168.976 257.92 48.858 243.894l-.403-135.78 120.118 14.026.403 135.78z" fill="#29333A"/><path d="M169.208 259.397a1.585 1.585 0 0 1-.407.008L48.683 245.377a1.491 1.491 0 0 1-1.321-1.478l-.4-135.781a1.494 1.494 0 0 1 1.665-1.489l120.118 14.028a1.492 1.492 0 0 1 1.321 1.479l.4 135.78c0 .429-.182.834-.498 1.12a1.506 1.506 0 0 1-.76.361zM50.344 242.566l117.132 13.677-.392-132.775-117.132-13.677.392 132.775z" fill="#F6F8F9"/><path d="m168.579 122.14 11.661-10.903 10.872 123.072-22.13 23.611-.403-135.78z" fill="#29333A"/><path d="M169.212 259.397a1.48 1.48 0 0 1-.781-.088 1.485 1.485 0 0 1-.944-1.382l-.401-135.784a1.482 1.482 0 0 1 .474-1.095l11.658-10.903a1.492 1.492 0 0 1 2.505.959l10.871 123.072c.038.424-.107.843-.396 1.154l-22.132 23.614a1.496 1.496 0 0 1-.854.453zm.858-136.612.387 131.374 19.107-20.385-10.546-119.359-8.948 8.37z" fill="#F6F8F9"/><path d="M60.122 97.21 48.46 108.117l120.118 14.025 11.661-10.904L60.122 97.21z" fill="#29333A"/><path d="M168.806 123.615a1.437 1.437 0 0 1-.404.008L48.284 109.598a1.495 1.495 0 0 1-.848-2.576l11.659-10.903c.32-.298.755-.443 1.192-.392l120.118 14.026a1.49 1.49 0 0 1 1.245 1.017 1.491 1.491 0 0 1-.397 1.556l-11.661 10.906a1.486 1.486 0 0 1-.786.383zM51.827 107.003l116.234 13.573 8.801-8.229L60.628 98.775l-8.8 8.228z" fill="#F6F8F9"/><mask id="b" style="mask-type:luminance" maskUnits="userSpaceOnUse" x="31" y="117" width="138" height="160"><path d="m31.39 135.42 114.448-18.1 22.292 140.955-114.448 18.1L31.391 135.42z" fill="#fff"/></mask><g mask="url(#b)"><mask id="c" style="mask-type:luminance" maskUnits="userSpaceOnUse" x="48" y="108" width="121" height="150"><path d="M168.984 257.924 48.865 243.898l-.403-135.78 120.118 14.026.404 135.78z" fill="#fff"/></mask><g mask="url(#c)"><path d="M115.278 278.676a9.938 9.938 0 0 1-9.232-3.493c-3.499-4.235-2.905-10.511 1.329-14.011 18.875-15.613 26.346-30.945 29.288-41.06 3.402-11.694 2.514-22.679-2.437-30.138a22.764 22.764 0 0 0-.82-1.155c-3.605 9.435-10.486 19.042-20.536 28.639-12.171 11.619-25.894 15.6-37.65 10.919-9.822-3.914-16.279-13.205-16.85-24.246-.706-13.692 7.7-26.483 22.483-34.211 10.253-5.364 20.073-8.442 29.328-9.21-14.436-13.084-49.753-15.576-75.61.703-4.648 2.928-10.791 1.527-13.715-3.125-2.928-4.652-1.532-10.798 3.12-13.724 16.819-10.59 37.39-15.64 57.918-14.224 20.361 1.404 37.388 9.09 46.725 21.079 3.303 4.245 5.562 8.888 6.751 13.806a40.318 40.318 0 0 1 15.427 13.739c8.199 12.357 10.01 29.384 4.964 46.716-5.337 18.349-17.685 35.928-35.71 50.836a9.887 9.887 0 0 1-4.776 2.16h.003zm-6.249-97.798c-5.791.916-12.181 3.138-18.959 6.682-7.702 4.028-12.126 9.839-11.831 15.548.164 3.178 1.826 5.772 4.334 6.772 4.16 1.655 10.35-.896 16.563-6.826 5.749-5.492 13.299-13.94 16.136-22.655a37.265 37.265 0 0 0-6.243.479z" fill="#fff"/></g></g><path d="M169.208 259.397a1.585 1.585 0 0 1-.407.008L48.683 245.377a1.491 1.491 0 0 1-1.321-1.478l-.4-135.781a1.494 1.494 0 0 1 1.665-1.489l120.118 14.028a1.492 1.492 0 0 1 1.321 1.479l.4 135.78c0 .429-.182.834-.498 1.12a1.506 1.506 0 0 1-.76.361zM50.344 242.566l117.132 13.677-.392-132.775-117.132-13.677.392 132.775z" fill="#F6F8F9"/><path d="M135.466 127.159a1.49 1.49 0 0 1-1.727-1.525c.048-1.404.265-3.893.566-7.342 2.078-23.856 8.409-96.456-19.45-99.563-4.504-.505-8.414.734-11.951 3.78-16.914 14.577-18.818 64.854-19.732 89.017-.133 3.525-.248 6.571-.388 8.8a1.487 1.487 0 0 1-1.58 1.397 1.488 1.488 0 0 1-1.396-1.582c.134-2.196.249-5.224.382-8.731.93-24.583 2.868-75.74 20.767-91.165 4.141-3.568 8.929-5.078 14.228-4.485 13.324 1.485 21.236 16.21 23.52 43.762 1.811 21.874-.297 46.046-1.427 59.032-.287 3.273-.51 5.857-.556 7.181a1.494 1.494 0 0 1-1.256 1.424z" fill="#F6F8F9"/></g><defs><clipPath id="a"><path fill="#fff" transform="rotate(-8.987 203.736 16.01)" d="M0 0h205v262H0z"/></clipPath></defs></svg>
